X: 20064
T: HUNTERS OF KENTUCKY
C:
%R: march, reel
B: Elias Howe "The Musician's Companion" 1843 p.6 #4
S: http://imslp.org/wiki/The_Musician's_Companion_(Howe,_Elias)
Z: 2015 John Chambers <jc:trillian.mit.edu>
N: The first notes in bars 8 & 9 have faint dots after them, giving the bars the wrong length.
N: Perhaps the rests in bars 8-10 should all be quarter-rests, or those dots should be removed?
M: C
L: 1/8
K: G
% - - - - - - - - - - - - - - - - - - - - - - - - -
d |\
BGGG DGGB | AGFG ABcd | BGGG DGGB | AGFG ABcc | Bddd Bddd |
edcB ABcc | Accc Accc | dcBA Bdz2 | G3GG F z2 F | c3 c c B z2 B | BAdF AGz2 |]
% - - - - - - - - - - - - - - - - - - - - - - - - -

%%sep 1 1 500

